contributed-vectors/timus.svg

<?xml version="1.0" encoding="UTF-8" standalone="no"?>
<svg
   xmlns:dc="http://purl.org/dc/elements/1.1/"
   xmlns:cc="http://creativecommons.org/ns#"
   xmlns:rdf="http://www.w3.org/1999/02/22-rdf-syntax-ns#"
   xmlns:svg="http://www.w3.org/2000/svg"
   xmlns="http://www.w3.org/2000/svg"
   xmlns:sodipodi="http://sodipodi.sourceforge.net/DTD/sodipodi-0.dtd"
   xmlns:inkscape="http://www.inkscape.org/namespaces/inkscape"
   viewBox="0 0 192 192"
   version="1.1"
   id="svg16"
   sodipodi:docname="timus.svg"
   inkscape:version="0.92.4 (5da689c313, 2019-01-14)">
  <metadata
     id="metadata20">
    <rdf:RDF>
      <cc:Work
         rdf:about="">
        <dc:format>image/svg+xml</dc:format>
        <dc:type
           rdf:resource="http://purl.org/dc/dcmitype/StillImage" />
        <dc:title></dc:title>
      </cc:Work>
    </rdf:RDF>
  </metadata>
  <sodipodi:namedview
     pagecolor="#ffffff"
     bordercolor="#666666"
     borderopacity="1"
     objecttolerance="10"
     gridtolerance="10"
     guidetolerance="10"
     inkscape:pageopacity="0"
     inkscape:pageshadow="2"
     inkscape:window-width="1920"
     inkscape:window-height="1017"
     id="namedview18"
     showgrid="true"
     inkscape:zoom="4.9166667"
     inkscape:cx="93.90365"
     inkscape:cy="113.31602"
     inkscape:window-x="-8"
     inkscape:window-y="-8"
     inkscape:window-maximized="1"
     inkscape:current-layer="svg16">
    <inkscape:grid
       type="xygrid"
       id="grid827"
       spacingx="4"
       spacingy="4" />
  </sodipodi:namedview>
  <defs
     id="defs4">
    <style
       id="style2">.a{fill:none;stroke:#b1b5bd;stroke-linecap:round;stroke-linejoin:round;isolation:isolate;opacity:0.63;}</style>
  </defs>
  <rect
     class="a"
     x="20"
     y="20"
     width="152"
     height="152"
     rx="10"
     id="rect6"
     style="fill:#56595b;stroke:none;opacity:1" />
  <path
     style="fill:#9abeff;stroke:none;stroke-width:1px;stroke-linecap:butt;stroke-linejoin:miter;stroke-opacity:1"
     d="M 68 72 C 59.462501 72 50.134766 78.629448 50.134766 88 C 50.134766 104 72 116 72 116 C 72 116 72.0099 130.38511 80 132 C 93.707195 134.77036 96 116 96 116 C 96 116 98.292805 134.77036 112 132 C 119.99 130.38511 120 116 120 116 C 120 116 141.86523 104 141.86523 88 C 141.86523 78.629448 132.5375 72 124 72 C 104 72 96 104 96 104 C 96 104 88 72 68 72 z "
     id="path829" />
  <path
     style="fill:#ffffff;stroke:none;stroke-width:1px;stroke-linecap:butt;stroke-linejoin:miter;stroke-opacity:1"
     d="m 72,116 c 0,0 6.834075,-17.864849 16,-17.661017 4.180078,0.09296 8,4.551057 8,9.661017 0,6.09789 -4,9.9661 -9.864407,9.9661 C 78.262787,117.9661 72,116 72,116 Z"
     id="path831"
     inkscape:connector-curvature="0"
     sodipodi:nodetypes="csssc" />
  <path
     style="fill:#ffffff;stroke:none;stroke-width:1px;stroke-linecap:butt;stroke-linejoin:miter;stroke-opacity:1"
     d="M 94.169492,92 C 94.169492,92 92,72 84,64 c -2.108185,-2.108185 -5.018576,-4 -8,-4 -2.676648,0 -4,2.114382 -4,4 0,1.885618 1.37194,3.295814 4,4 1.390378,0.372551 2.753421,0.907406 4,1.627119 C 89.654468,75.201129 94.169492,92 94.169492,92 Z"
     id="path833"
     inkscape:connector-curvature="0"
     sodipodi:nodetypes="csssssc" />
  <path
     style="fill:#ffffff;stroke:none;stroke-width:1px;stroke-linecap:butt;stroke-linejoin:miter;stroke-opacity:1"
     d="m 120,116 c 0,0 -6.83407,-17.864849 -16,-17.661017 -4.180078,0.09296 -8,4.551057 -8,9.661017 0,6.09789 4,9.9661 9.86441,9.9661 C 113.73721,117.9661 120,116 120,116 Z"
     id="path831-4"
     inkscape:connector-curvature="0"
     sodipodi:nodetypes="csssc" />
  <path
     style="fill:#ffffff;stroke:none;stroke-width:1px;stroke-linecap:butt;stroke-linejoin:miter;stroke-opacity:1"
     d="M 97.830508,92 C 97.830508,92 100,72 108,64 c 2.10819,-2.108185 5.01858,-4 8,-4 2.67665,0 4,2.114382 4,4 0,1.885618 -1.37194,3.295814 -4,4 -1.39038,0.372551 -2.75342,0.907406 -4,1.627119 C 102.34553,75.201129 97.830508,92 97.830508,92 Z"
     id="path833-7"
     inkscape:connector-curvature="0"
     sodipodi:nodetypes="csssssc" />
</svg>

<svg xmlns="http://www.w3.org/2000/svg" viewBox="0 0 192 192"><rect width="152" height="152" x="20" y="20" rx="10" style="fill:#56595b;stroke:none;opacity:1;stroke-linecap:round;stroke-linejoin:round;isolation:isolate"/><path d="M68 72c-8.537 0-17.865 6.63-17.865 16 0 16 21.865 28 21.865 28s.01 14.385 8 16c13.707 2.77 16-16 16-16s2.293 18.77 16 16c7.99-1.615 8-16 8-16s21.865-12 21.865-28c0-9.37-9.328-16-17.865-16-20 0-28 32-28 32s-8-32-28-32z" style="fill:#9abeff;stroke:none;stroke-width:1px;stroke-linecap:butt;stroke-linejoin:miter;stroke-opacity:1"/><path d="M72 116s6.834-17.865 16-17.661c4.18.093 8 4.551 8 9.661 0 6.098-4 9.966-9.864 9.966C78.263 117.966 72 116 72 116ZM94.17 92S92 72 84 64c-2.108-2.108-5.019-4-8-4-2.677 0-4 2.114-4 4 0 1.886 1.372 3.296 4 4 1.39.373 2.753.907 4 1.627C89.654 75.201 94.17 92 94.17 92ZM120 116s-6.834-17.865-16-17.661c-4.18.093-8 4.551-8 9.661 0 6.098 4 9.966 9.864 9.966C113.737 117.966 120 116 120 116ZM97.83 92S100 72 108 64c2.108-2.108 5.019-4 8-4 2.677 0 4 2.114 4 4 0 1.886-1.372 3.296-4 4-1.39.373-2.753.907-4 1.627C102.346 75.201 97.83 92 97.83 92Z" style="fill:#fff;stroke:none;stroke-width:1px;stroke-linecap:butt;stroke-linejoin:miter;stroke-opacity:1"/></svg>
